img/icons/svg/icon__identity-card.svg

<svg width="15" height="15" viewBox="0 0 15 15" fill="none" xmlns="http://www.w3.org/2000/svg">
<path d="M13.5539 2.0304H1.44614C0.64787 2.0304 0 2.67796 0 3.47657V11.5237C0 12.3223 0.64787 12.9699 1.44614 12.9699H13.5539C14.3525 12.9699 15 12.3223 15 11.5237V3.47657C15 2.67796 14.3525 2.0304 13.5539 2.0304ZM1.44164 9.35027C1.44164 9.33323 1.4455 9.31684 1.44614 9.3011C1.46928 8.59665 1.97511 8.02172 2.77048 7.70935C2.49314 7.37962 2.32603 6.95477 2.32603 6.49135C2.32603 5.96334 2.54328 5.48578 2.89228 5.14159C2.97391 5.06125 3.06228 4.98765 3.15708 4.92274C3.46142 4.71513 3.82841 4.59429 4.22337 4.59429C4.61833 4.59429 4.985 4.71577 5.28901 4.92274C5.79066 5.26435 6.12038 5.83993 6.12038 6.49135C6.12038 6.95444 5.95295 7.3793 5.67594 7.70903C6.43918 8.00854 6.9389 8.54877 6.99803 9.21561C7.00414 9.25996 7.00606 9.30528 7.00606 9.35059C7.00606 9.63404 6.89294 9.88953 6.71137 10.0785C6.52016 10.2768 6.25279 10.4018 5.9552 10.4018C5.95456 10.4018 5.95392 10.4018 5.95263 10.4018H2.49186C1.92626 10.4018 1.46863 9.9538 1.4455 9.39494C1.4455 9.37951 1.44164 9.36569 1.44164 9.35027ZM13.5539 9.79376C13.5314 10.128 13.2553 10.3928 12.9156 10.3928H9.05926C8.82499 10.3928 8.62188 10.2655 8.50876 10.0775C8.45156 9.98144 8.41653 9.86992 8.41653 9.75005C8.41653 9.39526 8.70447 9.10731 9.05926 9.10731H12.1077H12.9156C13.2563 9.10731 13.5314 9.37212 13.5539 9.70602C13.5548 9.72113 13.5584 9.73495 13.5584 9.75005C13.5584 9.76516 13.5548 9.77898 13.5539 9.79376ZM13.5539 7.54384C13.5314 7.87775 13.2553 8.14255 12.9156 8.14255H12.1077H9.05926C8.70447 8.14255 8.41653 7.85461 8.41653 7.49981C8.41653 7.14502 8.70447 6.85707 9.05926 6.85707H12.1077H12.9156C13.2563 6.85707 13.5314 7.12188 13.5539 7.45611C13.5548 7.47089 13.5584 7.48471 13.5584 7.49949C13.558 7.51492 13.5548 7.52874 13.5539 7.54384ZM13.5539 5.29392C13.5314 5.62815 13.2553 5.89296 12.9156 5.89296H12.1077H9.05926C8.70447 5.89296 8.41653 5.60501 8.41653 5.25021C8.41653 5.13002 8.45156 5.01883 8.50876 4.92274C8.62188 4.73441 8.82434 4.60747 9.05926 4.60747H12.9156C13.2563 4.60747 13.5314 4.87228 13.5539 5.20651C13.5548 5.22129 13.5584 5.23511 13.5584 5.25021C13.5584 5.26532 13.5548 5.27914 13.5539 5.29392Z" fill="#304BAB"/>
</svg>

<svg width="15" height="15" viewBox="0 0 15 15" fill="none" xmlns="http://www.w3.org/2000/svg"><path d="M13.554 2.03H1.446C.648 2.03 0 2.678 0 3.477v8.047c0 .798.648 1.446 1.446 1.446h12.108c.798 0 1.446-.648 1.446-1.446V3.477c0-.799-.648-1.447-1.446-1.447zM1.442 9.35c0-.017.004-.033.004-.049.023-.704.53-1.28 1.324-1.592a1.89 1.89 0 01.387-2.787 1.887 1.887 0 012.132 0 1.896 1.896 0 01.387 2.787c.763.3 1.263.84 1.322 1.507a1.047 1.047 0 01-.287.863 1.047 1.047 0 01-.756.323H2.492a1.049 1.049 0 01-1.046-1.007c0-.015-.004-.03-.004-.045zm12.112.444a.64.64 0 01-.638.599H9.059a.642.642 0 01-.55-.316.639.639 0 01.55-.97h3.857a.64.64 0 01.638.599c0 .015.004.029.004.044 0 .015-.003.029-.004.044zm0-2.25a.64.64 0 01-.638.599H9.059a.643.643 0 010-1.286h3.857a.64.64 0 01.638.6c0 .014.004.028.004.042 0 .016-.003.03-.004.045zm0-2.25a.64.64 0 01-.638.599H9.059a.643.643 0 010-1.286h3.857a.64.64 0 01.638.6c0 .014.004.028.004.043 0 .015-.003.03-.004.044z" fill="#304BAB"/></svg>
